packages/office-viewer/src/excel/io/excel/preset/icons/trafficLightYellow.svg

<svg width="16" height="16" viewBox="0 0 16 16" fill="none" xmlns="http://www.w3.org/2000/svg">
	<path d="M1 3C1 1.89543 1.89543 1 3 1H13C14.1046 1 15 1.89543 15 3V13C15 14.1046 14.1046 15 13 15H3C1.89543 15 1 14.1046 1 13V3Z" fill="#505050" />
	<path d="M3 1.5H13C13.8284 1.5 14.5 2.17157 14.5 3V13C14.5 13.8284 13.8284 14.5 13 14.5H3C2.17157 14.5 1.5 13.8284 1.5 13V3C1.5 2.17157 2.17157 1.5 3 1.5Z" stroke="black" stroke-opacity="0.2" />
	<path d="M14 8C14 4.68629 11.3137 2 8 2C4.68629 2 2 4.68629 2 8C2 11.3137 4.68629 14 8 14C11.3137 14 14 11.3137 14 8Z" fill="white" />
	<path d="M13 8C13 5.23858 10.7614 3 8 3C5.23858 3 3 5.23858 3 8C3 10.7614 5.23858 13 8 13C10.7614 13 13 10.7614 13 8Z" fill="#F8DB8F" />
</svg>

<svg xmlns="http://www.w3.org/2000/svg" width="16" height="16" fill="none"><path fill="#505050" d="M1 3a2 2 0 0 1 2-2h10a2 2 0 0 1 2 2v10a2 2 0 0 1-2 2H3a2 2 0 0 1-2-2z"/><path stroke="#000" stroke-opacity=".2" d="M3 1.5h10A1.5 1.5 0 0 1 14.5 3v10a1.5 1.5 0 0 1-1.5 1.5H3A1.5 1.5 0 0 1 1.5 13V3A1.5 1.5 0 0 1 3 1.5Z"/><path fill="#fff" d="M14 8A6 6 0 1 0 2 8a6 6 0 0 0 12 0"/><path fill="#F8DB8F" d="M13 8A5 5 0 1 0 3 8a5 5 0 0 0 10 0"/></svg>
